X:1
T:Love Unknown, 12.12.88
T:John Ireland 1918      
T:Love Unknown, 12.12.88
T:Courtesy of the Cyber Hymnal (http://www.cyberhymnal.org)
T:Courtesy of the Cyber Hymnal (http://www.cyberhymnal.org)
C:John Ireland
C:1918
Z:Courtesy of the Cyber Hymnal (http://www.cyberhymnal.org)
%%score ( 1 2 ) ( 3 4 )
L:1/8
Q:1/4=117
M:2/4
K:D
V:1 treble nm="P1"
V:2 treble 
V:3 bass nm="P2"
V:4 bass 
V:1
"^Editor:  John Henry Fowler" [DF]4 |[M:6/4] [DA]2 [B,B]2 [CF]4 [CE]4 |[M:4/4] [B,D]6 [A,E]2 | %3
 [DF]2 [DG]2 [CA]2 [DF]2 | [DB]6 [DB]2 | [Gc]2 [GB]2 [CA]2 [FA]2 | [Dd]2 [Ec]2 [FB]2 [CA]2 | %7
 A2 F4 ^G2 | A6 A2 |[M:6/4] =c2 B2 G6 G2 | B2 A2 [B,D]6 [A,E]2 |[M:4/4] [A,F]2 [DG]2 [DA]2 [DF]2 | %12
 [CF]4 [CE]4 |[M:2/4] D4 |] %14
V:2
 x4 |[M:6/4] x12 |[M:4/4] x8 | x8 | x8 | x8 | x4 x2 x2 | E6 E2 | E2 D2 C2 D2 | %9
[M:6/4] E2 D2 B,4 C4 | D2 =C2 x2 x6 |[M:4/4] x8 | x4 x2 x2 |[M:2/4] D4 |] %14
V:3
 [D,A,]4 |[M:6/4] A,2 F,2 A,4 A,,4 |[M:4/4] G,4 F,2 E,2 | [D,A,]2 [E,A,]2 [F,A,]2 [D,B,]2 | %4
 G,4 F,4 | [E,G,]2 [E,G,]2 [F,A,]2 [F,C]2 | [B,,B,]2 [C,A,]2 [D,F,]2 [F,A,]2 | B,6 B,2 | A,6 F,2 | %9
[M:6/4] G,2 F,2 G,4 E,4 | G,2 F,2 A,4 G,2 E,2 |[M:4/4] A,2 G,2 F,2 B,2 | A,6 G,2 |[M:2/4] F,4 |] %14
V:4
 x4 |[M:6/4] x2 x2 A,6 A,2 |[M:4/4] B,,6 C,2 | x2 x2 x2 x2 | G,6 G,2 | x8 | x4 x2 x2 | E,4 D,4 | %8
 C,2 B,,2 A,,2 D,2 |[M:6/4] =C,2 D,2 E,4 C,4 | G,,2 A,,2 B,,6 C,2 |[M:4/4] D,2 B,,2 F,,2 G,,2 | %12
 A,,4 A,,4 |[M:2/4] D,4 |] %14

